packages/katcn/src/icons/svg/cloudStorage-solid.svg

<svg width="24" height="25" viewBox="0 0 24 25" fill="none" xmlns="http://www.w3.org/2000/svg">
<path d="M18.2 15.776H18.4C18.5 15.776 18.5 15.776 18.6 15.776C21 15.576 23 13.476 23 10.976C23 8.37601 20.8 6.17601 18.2 6.17601C18 6.17601 17.8 6.17601 17.7 6.17601C16.5 4.27601 14.4 2.97601 12 2.97601C9.6 2.97601 7.5 4.27601 6.4 6.27601C6.2 6.27601 6 6.27601 5.8 6.27601C3.2 6.17601 1 8.37601 1 10.976C1 13.476 3 15.576 5.5 15.676C5.6 15.676 5.6 15.676 5.7 15.676H5.9H7.4V19.076H4.7C4.1 19.076 3.7 19.476 3.7 20.076C3.7 20.676 4.1 21.076 4.7 21.076H8.3C8.9 21.076 9.3 20.676 9.3 20.076V15.676H11V21.976C11 22.576 11.4 22.976 12 22.976C12.6 22.976 13 22.576 13 21.976V15.776H14.6V20.176C14.6 20.776 15 21.176 15.6 21.176H19.2C19.8 21.176 20.2 20.776 20.2 20.176C20.2 19.576 19.8 19.176 19.2 19.176H16.6V15.776H18.2Z" fill="black"/>
</svg>

<svg xmlns="http://www.w3.org/2000/svg" fill="none" viewBox="0 0 24 25"><path fill="#000" d="M18.2 15.776h.4c2.4-.2 4.4-2.3 4.4-4.8 0-2.6-2.2-4.8-4.8-4.8h-.5c-1.2-1.9-3.3-3.2-5.7-3.2s-4.5 1.3-5.6 3.3h-.6c-2.6-.1-4.8 2.1-4.8 4.7 0 2.5 2 4.6 4.5 4.7h1.9v3.4H4.7c-.6 0-1 .4-1 1s.4 1 1 1h3.6c.6 0 1-.4 1-1v-4.4H11v6.3c0 .6.4 1 1 1s1-.4 1-1v-6.2h1.6v4.4c0 .6.4 1 1 1h3.6c.6 0 1-.4 1-1s-.4-1-1-1h-2.6v-3.4z"/></svg>
